X: 12305
T: Fairy Trooper, The
R: hornpipe
M: 4/4
K: Gmajor
dc|B2 B>c B2 AG|d2 d>e dBAB|PG3 B A2 GA|B6 d2|
e2 e>d efge|f2 d>c Bdef|g3 d e3 d|d4d def|
g2 d2 cBAG|d2 e2 B2 AB|PG3 B A2 GA|B6 d2|
e2 fg a2 fd|g2 ab g2 dc|B2 GB A3 G|G6:|

